src/assets/icons/letters,fancy,serif-v.svg

<svg width="48" height="48" viewBox="0 0 48 48" fill="none" xmlns="http://www.w3.org/2000/svg">
<path d="M25.3549 30.464L30.2949 17.81C30.7763 16.5687 31.1563 15.5553 31.4349 14.77C31.7389 13.9847 31.9669 13.3387 32.1189 12.832C32.2709 12.3253 32.3723 11.92 32.4229 11.616C32.4736 11.312 32.4989 11.0207 32.4989 10.742C32.4989 10.134 32.2709 9.74133 31.8149 9.564C31.3589 9.36133 30.4469 9.26 29.0789 9.26V7.74H39.8709V9.26C37.7683 9.26 36.3116 10.286 35.5009 12.338L25.5069 37.38H22.6949L13.6129 15.188C13.1063 13.9973 12.6503 13.022 12.2449 12.262C11.8396 11.502 11.4089 10.9067 10.9529 10.476C10.4969 10.02 9.99027 9.716 9.43294 9.564C8.90094 9.38667 8.2676 9.298 7.53294 9.298V7.74H21.8969V9.298C21.2383 9.32333 20.6809 9.36133 20.2249 9.412C19.7943 9.46267 19.4523 9.55133 19.1989 9.678C18.9456 9.77933 18.7683 9.93133 18.6669 10.134C18.5656 10.3113 18.5149 10.5393 18.5149 10.818C18.5149 11.1727 18.5783 11.5907 18.7049 12.072C18.8316 12.5533 19.0216 13.136 19.2749 13.82L25.3549 30.464Z" fill="black"/>
</svg>

<svg xmlns="http://www.w3.org/2000/svg" width="48" height="48" fill="none" viewBox="0 0 48 48">
  <path fill="#000" d="M25.355 30.464l4.94-12.654c.481-1.241.861-2.255 1.14-3.04.304-.785.532-1.431.684-1.938.152-.507.253-.912.304-1.216.05-.304.076-.595.076-.874 0-.608-.228-1-.684-1.178-.456-.203-1.368-.304-2.736-.304V7.74H39.87v1.52c-2.103 0-3.56 1.026-4.37 3.078L25.507 37.38h-2.812l-9.082-22.192c-.507-1.19-.963-2.166-1.368-2.926-.405-.76-.836-1.355-1.292-1.786-.456-.456-.963-.76-1.52-.912-.532-.177-1.165-.266-1.9-.266V7.74h14.364v1.558a23.78 23.78 0 00-1.672.114c-.43.05-.773.14-1.026.266-.253.101-.43.253-.532.456-.101.177-.152.405-.152.684 0 .355.063.773.19 1.254s.317 1.064.57 1.748l6.08 16.644z"/>
</svg>
